!!!OTL: Tageweis von der Koenigstochter und dem jungen Grafen. / b. Dieselbe Melodie etwas umgeformt. (1607 bei Praetorius.)
!!!ARE: Europa, Mitteleuropa, Deutschland
!!!SCT: A0020B
!!!OPR: 20. Tageweis von der Koenigstochter und dem jungen Grafen.
!!!TXL: @@DE
!!!YEM: Copyright 1995, estate of Helmut Schaffrath.
**kern	**text
!! Mixed meters:  4/2; 6/2
*M6/2	*
*k[b-]	*
*G:	*
!LO:TX:a:t=aeol.	!
{1g	Hilf
=1	=1
*M4/2	*
2a	Gott,
2g	daß
2f	mir
2d	ge-
=2	=2
*M6/2	*
1f	-lin-
1g	-ge
2r}	.
{2g	⁊c.
=3	=3
1b-	.
2b-	.
1cc	.
2b-	.
=4	=4
1a	.
1g}	.
{1g	Hilf
=5	=5
*M4/2	*
2a	Gott,
2g	daß
2f	mir
2d	ge-
=6	=6
*M6/2	*
1f	-lin-
1g	-ge
2r}	.
{2g	⁊c.
=7	=7
1b-	.
2b-	.
1cc	.
2b-	.
=8	=8
*M4/2	*
1a	.
1g}	.
=9	=9
{2r	.
2g	.
2a	.
2a	.
=10	=10
2dd	.
2cc	.
2b-	.
2a\}	.
=11	=11
{1.b-	.
4a	.
4g	.
=12	=12
1f	.
2r}	.
{2g	.
=13	=13
2b-	.
2a\	.
2b-	.
2cc	.
=14	=14
*M6/2	*
*lig	*
1dd	.
2cc	.
1b-	.
4a	.
4g	.
=15	=15
*M4/2	*
1f	.
*Xlig	*
2r}	.
{2g	.
=16	=16
*M6/2	*
1b-	.
2b-	.
1cc	.
2b-	.
=17	=17
*lig	*
1a	.
1g}	.
*Xlig	*
==	==
!!!GTL: Balladen und Romanzen (erzählende Volkslieder)
!!!AGN: Romanze, Ballade, Lied
!! Dieselbe Melodie etwas umgeformt. (1607 bei Praetorius)
!!!ONB: ESAC (Essen Associative Code) Database: ALTDEU
!!!AMT: irregular
!!!AIN: vox
!!!EED: Helmut Schaffrath
!!!EEV: 1.0
!!!AMD: Aeolian
!!!URL-scan:https://rosdok.uni-rostock.de/mcrviewer/recordIdentifier/rosdok_ppn738218359/iview2/phys_0149.iview2?x=-955.4044398057085&y=1381.4048730732175&scale=0.35505986316989735&rotation=0&layout=singlePageLayout&logicalDiv=log_0007
!!!ENC: Anna Maria Matuszewska
!!!EEV: 2024/16/02
*-	*-
